;FLAVOR:Marlin
;TIME:5519
;Filament used: 4.49067m
;Layer height: 0.28
;MINX:93.819
;MINY:94.059
;MINZ:0.28
;MAXX:138.974
;MAXY:140.074
;MAXZ:14.84
;Generated with Cura_SteamEngine 4.9.1
M140 S80
M105
M190 S80
M104 S230
M105
M109 S230
M82 ;absolute extrusion mode
; Ender 3 Custom Start G-code
G92 E0 ; Reset Extruder
G28 ; Home all axes
G1 Z2.0 F3000 ; Move Z Axis up little to prevent scratching of Heat Bed
G1 X0.1 Y20 Z0.3 F5000.0 ; Move to start position
G1 X0.1 Y200.0 Z0.3 F1500.0 E15 ; Draw the first line
G1 X0.4 Y200.0 Z0.3 F5000.0 ; Move to side a little
G1 X0.4 Y20 Z0.3 F1500.0 E30 ; Draw the second line
G92 E0 ; Reset Extruder
G1 Z2.0 F3000 ; Move Z Axis up little to prevent scratching of Heat Bed
G1 X5 Y20 Z0.3 F5000.0 ; Move over to prevent blob squish
G92 E0
G92 E0
G1 F2700 E-5
;LAYER_COUNT:53
;LAYER:0
M107
;MESH:A03_Roscafuso.stl(2)
G0 F6000 X103.787 Y123.049 Z0.28
;TYPE:WALL-INNER
G1 F2700 E0
G1 F900 X102.756 Y123.166 E0.04832
G1 X101.725 Y123.049 E0.09663
G1 X100.702 Y122.69 E0.14711
G1 X99.771 Y122.115 E0.19807
G1 X98.918 Y121.308 E0.25275
G1 X98.207 Y120.311 E0.30977
G1 X97.677 Y119.166 E0.36852
G1 X97.345 Y117.903 E0.42933
G1 X97.232 Y116.578 E0.49125
G1 X97.345 Y115.253 E0.55317
G1 X97.677 Y113.99 E0.61398
G1 X98.207 Y112.845 E0.67273
G1 X98.918 Y111.848 E0.72975
G1 X99.771 Y111.041 E0.78443
G1 X100.702 Y110.466 E0.83538
G1 X101.725 Y110.107 E0.88586
G1 X102.756 Y109.99 E0.93418
G1 X103.787 Y110.107 E0.98249
G1 X104.81 Y110.466 E1.03298
G1 X105.741 Y111.041 E1.08393
G1 X106.594 Y111.848 E1.13861
G1 X107.304 Y112.845 E1.1956
G1 X107.835 Y113.991 E1.25441
G1 X108.166 Y115.252 E1.31512
G1 X108.279 Y116.578 E1.37709
G1 X108.166 Y117.904 E1.43906
G1 X107.835 Y119.165 E1.49976
G1 X107.304 Y120.311 E1.55857
G1 X106.594 Y121.308 E1.61557
G1 X105.741 Y122.115 E1.67025
G1 X104.81 Y122.69 E1.7212
G1 X103.787 Y123.049 E1.77168
G0 F6000 X103.878 Y123.441
G1 F900 X102.801 Y123.562 E1.82215
G1 X102.756 Y123.568 E1.82426
G1 X101.634 Y123.441 E1.87684
G1 X100.529 Y123.053 E1.93137
G1 X99.523 Y122.432 E1.98642
G1 X98.615 Y121.573 E2.04463
G1 X97.86 Y120.513 E2.10522
G1 X97.299 Y119.301 E2.16741
G1 X96.949 Y117.97 E2.2315
G1 X96.83 Y116.578 E2.29655
G1 X96.949 Y115.186 E2.3616
G1 X97.299 Y113.855 E2.42569
G1 X97.86 Y112.643 E2.48788
G1 X98.615 Y111.583 E2.54847
G1 X99.523 Y110.724 E2.60668
G1 X100.529 Y110.103 E2.66173
G1 X101.634 Y109.715 E2.71626
G1 X102.711 Y109.594 E2.76672
G1 X102.756 Y109.588 E2.76884
G1 X103.878 Y109.715 E2.82142
G1 X104.983 Y110.103 E2.87595
G1 X105.989 Y110.724 E2.931
G1 X106.897 Y111.583 E2.9892
G1 X107.651 Y112.643 E3.04977
G1 X108.213 Y113.856 E3.11202
G1 X108.562 Y115.185 E3.17601
G1 X108.681 Y116.578 E3.24111
G1 X108.562 Y117.971 E3.30621
G1 X108.213 Y119.3 E3.37019
G1 X107.651 Y120.513 E3.43244
G1 X106.897 Y121.573 E3.49301
G1 X105.989 Y122.432 E3.55121
G1 X104.983 Y123.053 E3.60626
G1 X103.878 Y123.441 E3.66079
G0 F6000 X103.971 Y123.832
G1 F900 X103.924 Y123.837 E3.663
G1 X102.802 Y123.964 E3.71557
G1 X102.756 Y123.97 E3.71773
G1 X101.541 Y123.832 E3.77467
G1 X100.359 Y123.418 E3.83299
G1 X99.275 Y122.749 E3.89231
G1 X98.312 Y121.838 E3.95403
G1 X97.513 Y120.715 E4.01821
G1 X96.921 Y119.436 E4.08383
G1 X96.553 Y118.037 E4.15119
G1 X96.428 Y116.578 E4.21938
G1 X96.553 Y115.119 E4.28757
G1 X96.921 Y113.72 E4.35492
G1 X97.513 Y112.441 E4.42055
G1 X98.312 Y111.318 E4.48473
G1 X99.275 Y110.407 E4.54645
G1 X100.359 Y109.738 E4.60577
G1 X101.541 Y109.324 E4.66409
G1 X101.588 Y109.319 E4.66629
G1 X102.71 Y109.192 E4.71887
G1 X102.756 Y109.186 E4.72103
G1 X103.971 Y109.324 E4.77796
G1 X105.153 Y109.738 E4.83628
G1 X106.237 Y110.407 E4.8956
G1 X107.2 Y111.318 E4.95732
G1 X107.998 Y112.441 E5.02147
G1 X108.591 Y113.72 E5.08712
G1 X108.958 Y115.119 E5.15447
G1 X109.083 Y116.578 E5.22265
G1 X108.958 Y118.037 E5.29084
G1 X108.591 Y119.436 E5.35818
G1 X107.998 Y120.715 E5.42383
G1 X107.2 Y121.838 E5.48798
G1 X106.237 Y122.749 E5.54971
G1 X105.153 Y123.418 E5.60902
G1 X103.971 Y123.832 E5.66734
G0 F6000 X104.064 Y124.223
;TYPE:WALL-OUTER
G1 F900 X102.756 Y124.372 E5.72864
G1 X101.448 Y124.223 E5.78994
G1 X100.189 Y123.783 E5.85204
G1 X99.027 Y123.066 E5.91562
G1 X98.009 Y122.103 E5.98087
G1 X97.166 Y120.917 E6.04862
G1 X96.543 Y119.571 E6.11769
G1 X96.157 Y118.104 E6.18832
G1 X96.026 Y116.578 E6.25964
G1 X96.157 Y115.052 E6.33096
G1 X96.543 Y113.585 E6.40159
G1 X97.166 Y112.239 E6.47066
G1 X98.009 Y111.053 E6.53841
G1 X99.027 Y110.09 E6.60366
G1 X100.189 Y109.373 E6.66724
G1 X101.448 Y108.933 E6.72934
G1 X102.756 Y108.784 E6.79064
G1 X104.064 Y108.933 E6.85194
G1 X105.323 Y109.373 E6.91404
G1 X106.485 Y110.09 E6.97762
G1 X107.503 Y111.053 E7.04287
G1 X108.345 Y112.239 E7.1106
G1 X108.969 Y113.585 E7.17968
G1 X109.354 Y115.052 E7.25031
G1 X109.485 Y116.578 E7.32163
G1 X109.354 Y118.104 E7.39294
G1 X108.969 Y119.571 E7.46357
G1 X108.345 Y120.917 E7.53265
G1 X107.503 Y122.103 E7.60038
G1 X106.485 Y123.066 E7.66563
G1 X105.323 Y123.783 E7.72921
G1 X104.064 Y124.223 E7.79131
G0 F6000 X103.966 Y123.795
G0 X103.794 Y122.929
G0 X103.702 Y122.665
;TYPE:SKIN
G1 F900 X102.756 Y122.773 E7.83564
G1 X101.81 Y122.665 E7.87998
G1 X100.872 Y122.337 E7.92625
G1 X100.008 Y121.803 E7.97355
G1 X99.214 Y121.052 E8.02444
G1 X98.543 Y120.11 E8.07829
G1 X98.046 Y119.037 E8.13335
G1 X97.73 Y117.834 E8.19127
G1 X97.622 Y116.578 E8.24997
G1 X97.73 Y115.322 E8.30867
G1 X98.046 Y114.119 E8.36659
G1 X98.543 Y113.046 E8.42165
G1 X99.214 Y112.104 E8.4755
G1 X100.008 Y111.353 E8.52639
G1 X100.872 Y110.819 E8.57369
G1 X101.81 Y110.491 E8.61996
G1 X102.756 Y110.383 E8.6643
G1 X103.702 Y110.491 E8.70863
G1 X104.64 Y110.819 E8.7549
G1 X105.504 Y111.353 E8.8022
G1 X106.298 Y112.103 E8.85306
G1 X106.968 Y113.045 E8.90688
G1 X107.466 Y114.12 E8.96205
G1 X107.781 Y115.32 E9.01982
G1 X107.889 Y116.578 E9.07861
G1 X107.781 Y117.836 E9.13741
G1 X107.466 Y119.036 E9.19518
G1 X106.968 Y120.111 E9.25034
G1 X106.298 Y121.053 E9.30417
G1 X105.504 Y121.803 E9.35503
G1 X104.64 Y122.337 E9.40232
G1 X103.702 Y122.665 E9.44859
G0 F6000 X103.794 Y122.929
G0 X102.756 Y122.994
G0 X101.763 Y122.88
G0 X100.776 Y122.536
G0 X99.966 Y122.035
G0 X98.693 Y120.803
G0 X99.052 Y120.548
G1 F900 X100.298 Y121.794 E9.53065
G0 F6000 X100.067 Y122.168
G0 X101.284 Y122.777
G0 X101.43 Y122.361
G1 F900 X98.321 Y119.251 E9.73541
G0 F6000 X98.046 Y118.411
G1 F900 X102.179 Y122.544 E10.00758
G0 F6000 X102.805 Y122.604
G1 F900 X97.877 Y117.676 E10.33209
G0 F6000 X97.823 Y117.056
G1 F900 X103.313 Y122.546 E10.69362
G0 F6000 X103.794 Y122.461
G1 F900 X97.792 Y116.459 E11.08886
G0 F6000 X97.836 Y115.938
G1 F900 X104.213 Y122.315 E11.5088
G0 F6000 X104.622 Y122.158
G1 F900 X97.881 Y115.418 E11.95267
G0 F6000 X97.989 Y114.96
G1 F900 X104.972 Y121.942 E12.41248
G0 F6000 X105.321 Y121.726
G1 F900 X98.106 Y114.511 E12.8876
G0 F6000 X98.239 Y114.078
G1 F900 X105.626 Y121.466 E13.37408
G0 F6000 X105.917 Y121.191
G1 F900 X98.418 Y113.692 E13.8679
G0 F6000 X98.597 Y113.305
G1 F900 X106.202 Y120.91 E14.3687
G0 F6000 X106.437 Y120.58
G1 F900 X98.806 Y112.948 E14.87125
G0 F6000 X99.042 Y112.618
G1 F900 X106.673 Y120.249 E15.37377
G0 F6000 X106.889 Y119.9
G1 F900 X99.277 Y112.288 E15.87503
G0 F6000 X99.555 Y112
G1 F900 X107.068 Y119.513 E16.36977
G0 F6000 X107.248 Y119.127
G1 F900 X99.846 Y111.725 E16.85721
G0 F6000 X100.143 Y111.456
G1 F900 X107.389 Y118.702 E17.33437
G0 F6000 X107.506 Y118.254
G1 F900 X100.492 Y111.24 E17.79625
G0 F6000 X100.842 Y111.024
G1 F900 X107.623 Y117.806 E18.24283
G0 F6000 X107.668 Y117.284
G1 F900 X101.242 Y110.858 E18.66599
G0 F6000 X101.661 Y110.712
G1 F900 X107.713 Y116.764 E19.06452
G0 F6000 X107.695 Y116.18
G1 F900 X102.13 Y110.615 E19.43099
G0 F6000 X102.638 Y110.558
G1 F900 X107.642 Y115.561 E19.76048
G0 F6000 X107.492 Y114.846
G1 F900 X103.246 Y110.6 E20.04008
G0 F6000 X103.964 Y110.752
G1 F900 X107.255 Y114.043 E20.2568
G0 F6000 X107.652 Y113.859
G0 X107.006 Y112.617
G0 X106.648 Y112.871
G1 F900 X105.015 Y111.238 E20.36434
G0 F6000 X105.405 Y110.61
G1 F2700 E15.36434
;MESH:A03_Roscafuso.stl
G0 F6000 X106.98 Y112.698
G0 X109.265 Y116.578
G0 X110.99 Y117.5
G0 X113.1 Y121.148
G0 X113.791 Y122.117
G0 X114.62 Y122.901
G0 X115.52 Y123.458
G0 X117.5 Y124.088
;TYPE:WALL-INNER
G1 F2700 E20.36434
G1 F900 X116.469 Y123.971 E20.41265
G1 X115.446 Y123.612 E20.46314
G1 X114.515 Y123.037 E20.51409
G1 X113.662 Y122.23 E20.56877
G1 X112.951 Y121.233 E20.62579
G1 X112.421 Y120.088 E20.68454
G1 X112.089 Y118.825 E20.74535
G1 X111.976 Y117.5 E20.80727
G1 X112.089 Y116.175 E20.86919
G1 X112.421 Y114.912 E20.93
G1 X112.951 Y113.767 E20.98875
G1 X113.662 Y112.77 E21.04577
G1 X114.515 Y111.963 E21.10045
G1 X115.446 Y111.388 E21.1514
G1 X116.469 Y111.029 E21.20188
G1 X117.5 Y110.912 E21.2502
G1 X118.531 Y111.029 E21.29852
G1 X119.554 Y111.388 E21.349
G1 X120.485 Y111.963 E21.39995
G1 X121.338 Y112.77 E21.45463
G1 X122.049 Y113.767 E21.51165
G1 X122.579 Y114.912 E21.5704
G1 X122.911 Y116.175 E21.63121
G1 X123.024 Y117.5 E21.69313
G1 X122.911 Y118.825 E21.75505
G1 X122.579 Y120.088 E21.81586
G1 X122.049 Y121.233 E21.87461
G1 X121.338 Y122.23 E21.93163
G1 X120.485 Y123.037 E21.98631
G1 X119.554 Y123.612 E22.03726
G1 X118.531 Y123.971 E22.08775
G1 X117.5 Y124.088 E22.13606
G0 F6000 X117.5 Y124.49
G1 F900 X116.378 Y124.363 E22.18864
G1 X115.273 Y123.975 E22.24317
G1 X114.267 Y123.354 E22.29822
G1 X113.359 Y122.495 E22.35643
G1 X112.604 Y121.435 E22.41702
G1 X112.043 Y120.223 E22.47921
G1 X111.693 Y118.892 E22.5433
G1 X111.574 Y117.5 E22.60835
G1 X111.693 Y116.108 E22.6734
G1 X112.043 Y114.777 E22.73749
G1 X112.604 Y113.565 E22.79968
G1 X113.359 Y112.505 E22.86027
G1 X114.267 Y111.646 E22.91848
G1 X115.273 Y111.025 E22.97353
G1 X116.378 Y110.637 E23.02806
G1 X117.455 Y110.516 E23.07852
G1 X117.5 Y110.51 E23.08064
G1 X118.622 Y110.637 E23.13322
G1 X119.727 Y111.025 E23.18775
G1 X120.733 Y111.646 E23.2428
G1 X121.641 Y112.505 E23.301
G1 X122.396 Y113.565 E23.3616
G1 X122.957 Y114.777 E23.42379
G1 X123.307 Y116.108 E23.48787
G1 X123.426 Y117.5 E23.55293
G1 X123.307 Y118.892 E23.61798
G1 X122.957 Y120.223 E23.68206
G1 X122.396 Y121.435 E23.74425
G1 X121.641 Y122.495 E23.80485
G1 X120.733 Y123.354 E23.86305
G1 X119.727 Y123.975 E23.9181
G1 X118.622 Y124.363 E23.97264
G1 X117.545 Y124.484 E24.0231
G1 X117.5 Y124.49 E24.02522
G0 F6000 X117.5 Y124.892
G1 F900 X116.285 Y124.754 E24.08216
G1 X115.103 Y124.34 E24.14047
G1 X114.019 Y123.671 E24.19979
G1 X113.056 Y122.76 E24.26151
G1 X112.257 Y121.637 E24.32569
G1 X111.665 Y120.358 E24.39132
G1 X111.297 Y118.959 E24.45868
G1 X111.172 Y117.5 E24.52686
G1 X111.297 Y116.041 E24.59505
G1 X111.665 Y114.642 E24.66241
G1 X112.257 Y113.363 E24.72803
G1 X113.056 Y112.24 E24.79221
G1 X114.019 Y111.329 E24.85394
G1 X115.103 Y110.66 E24.91325
G1 X116.285 Y110.246 E24.97157
G1 X116.332 Y110.241 E24.97377
G1 X117.454 Y110.114 E25.02635
G1 X117.5 Y110.108 E25.02851
G1 X118.715 Y110.246 E25.08545
G1 X119.897 Y110.66 E25.14376
G1 X120.981 Y111.329 E25.20308
G1 X121.944 Y112.24 E25.2648
G1 X122.743 Y113.363 E25.32898
G1 X123.335 Y114.642 E25.39461
G1 X123.703 Y116.041 E25.46197
G1 X123.828 Y117.5 E25.53015
G1 X123.703 Y118.959 E25.59834
G1 X123.335 Y120.358 E25.6657
G1 X122.743 Y121.637 E25.73132
G1 X121.944 Y122.76 E25.7955
G1 X120.981 Y123.671 E25.85723
G1 X119.897 Y124.34 E25.91654
G1 X118.715 Y124.754 E25.97486
G1 X118.668 Y124.759 E25.97706
G1 X117.546 Y124.886 E26.02964
G1 X117.5 Y124.892 E26.0318
G0 F6000 X117.5 Y125.294
;TYPE:WALL-OUTER
G1 F900 X116.192 Y125.145 E26.0931
G1 X114.933 Y124.705 E26.1552
G1 X113.771 Y123.988 E26.21878
G1 X112.753 Y123.025 E26.28403
G1 X111.91 Y121.839 E26.35178
G1 X111.287 Y120.493 E26.42085
G1 X110.901 Y119.026 E26.49148
G1 X110.77 Y117.5 E26.5628
G1 X110.901 Y115.974 E26.63412
G1 X111.287 Y114.507 E26.70475
G1 X111.91 Y113.161 E26.77382
G1 X112.753 Y111.975 E26.84157
G1 X113.771 Y111.012 E26.90682
G1 X114.933 Y110.295 E26.9704
G1 X116.192 Y109.855 E27.0325
G1 X117.5 Y109.706 E27.0938
G1 X118.808 Y109.855 E27.1551
G1 X120.067 Y110.295 E27.2172
G1 X121.229 Y111.012 E27.28078
G1 X122.247 Y111.975 E27.34603
G1 X123.09 Y113.161 E27.41379
G1 X123.713 Y114.507 E27.48285
G1 X124.099 Y115.974 E27.55349
G1 X124.23 Y117.5 E27.6248
G1 X124.099 Y119.026 E27.69612
G1 X123.713 Y120.493 E27.76676
G1 X123.09 Y121.839 E27.83582
G1 X122.247 Y123.025 E27.90358
G1 X121.229 Y123.988 E27.96883
G1 X120.067 Y124.705 E28.03241
G1 X118.808 Y125.145 E28.09451
G1 X117.5 Y125.294 E28.15581
G0 F6000 X117.5 Y124.854
G0 X117.468 Y123.972
G0 X117.5 Y123.695
;TYPE:SKIN
G1 F900 X116.554 Y123.587 E28.20014
G1 X115.616 Y123.259 E28.24641
G1 X114.752 Y122.725 E28.29371
G1 X113.958 Y121.974 E28.3446
G1 X113.287 Y121.032 E28.39845
G1 X112.79 Y119.959 E28.45352
G1 X112.474 Y118.756 E28.51143
G1 X112.366 Y117.5 E28.57013
G1 X112.474 Y116.244 E28.62883
G1 X112.79 Y115.041 E28.68675
G1 X113.287 Y113.968 E28.74181
G1 X113.958 Y113.026 E28.79567
G1 X114.752 Y112.275 E28.84656
G1 X115.616 Y111.741 E28.89385
G1 X116.554 Y111.413 E28.94012
G1 X117.5 Y111.305 E28.98446
G1 X118.446 Y111.413 E29.02879
G1 X119.384 Y111.741 E29.07507
G1 X120.248 Y112.275 E29.12236
G1 X121.042 Y113.026 E29.17325
G1 X121.713 Y113.968 E29.2271
G1 X122.21 Y115.041 E29.28217
G1 X122.526 Y116.244 E29.34008
G1 X122.634 Y117.5 E29.39878
G1 X122.526 Y118.756 E29.45749
G1 X122.211 Y119.954 E29.51517
G1 X121.713 Y121.033 E29.5705
G1 X121.042 Y121.974 E29.62432
G1 X120.248 Y122.725 E29.67521
G1 X119.384 Y123.259 E29.7225
G1 X118.446 Y123.587 E29.76877
G1 X117.5 Y123.695 E29.81311
G0 F6000 X117.468 Y123.972
G0 X116.507 Y123.802
G0 X115.52 Y123.458
G0 X114.62 Y122.901
G0 X113.949 Y122.267
G0 X112.879 Y120.815
G0 X113.277 Y120.631
G1 F900 X115.797 Y123.151 E29.97906
G0 F6000 X116.646 Y123.434
G1 F900 X112.878 Y119.666 E30.22718
G0 F6000 X112.676 Y118.898
G1 F900 X117.284 Y123.507 E30.53066
G0 F6000 X117.836 Y123.493
G1 F900 X112.589 Y118.246 E30.87619
G0 F6000 X112.536 Y117.627
G1 F900 X118.344 Y123.435 E31.25865
G0 F6000 X118.774 Y123.3
G1 F900 X112.56 Y117.086 E31.66786
G0 F6000 X112.605 Y116.565
G1 F900 X119.194 Y123.154 E32.10175
G0 F6000 X119.564 Y122.958
G1 F900 X112.682 Y116.076 E32.55494
G0 F6000 X112.799 Y115.628
G1 F900 X119.913 Y122.742 E33.02341
G0 F6000 X120.244 Y122.507
G1 F900 X112.917 Y115.18 E33.50591
G0 F6000 X113.084 Y114.781
G1 F900 X120.535 Y122.232 E33.99657
G0 F6000 X120.825 Y121.956
G1 F900 X113.264 Y114.395 E34.49447
G0 F6000 X113.448 Y114.014
G1 F900 X121.079 Y121.644 E34.99696
G0 F6000 X121.314 Y121.314
G1 F900 X113.684 Y113.684 E35.4994
G0 F6000 X113.919 Y113.354
G1 F900 X121.55 Y120.985 E36.00192
G0 F6000 X121.734 Y120.603
G1 F900 X114.173 Y113.042 E36.49982
G0 F6000 X114.463 Y112.766
G1 F900 X121.913 Y120.216 E36.99042
G0 F6000 X122.081 Y119.819
G1 F900 X114.754 Y112.491 E37.47295
G0 F6000 X115.085 Y112.256
G1 F900 X122.199 Y119.37 E37.94142
G0 F6000 X122.317 Y118.923
G1 F900 X115.434 Y112.04 E38.39467
G0 F6000 X115.804 Y111.844
G1 F900 X122.393 Y118.434 E38.8286
G0 F6000 X122.438 Y117.912
G1 F900 X116.224 Y111.698 E39.23781
G0 F6000 X116.654 Y111.563
G1 F900 X122.463 Y117.371 E39.62031
G0 F6000 X122.409 Y116.752
G1 F900 X117.162 Y111.505 E39.96583
G0 F6000 X117.714 Y111.492
G1 F900 X122.323 Y116.1 E40.26931
G0 F6000 X122.12 Y115.332
G1 F900 X118.352 Y111.564 E40.51744
G0 F6000 X119.201 Y111.847
G1 F900 X121.721 Y114.367 E40.68338
G0 F6000 X122.393 Y114.057
G1 F2700 E35.68338
;MESH:A03_Roscafuso.stl(1)
G0 F6000 X123.882 Y118.989
G0 X125.863 Y119.911
G0 X128.535 Y123.039
G0 X129.364 Y123.823
G0 X131.213 Y124.893
;TYPE:WALL-INNER
G1 F2700 E40.68338
G1 F900 X130.19 Y124.534 E40.73387
G1 X129.259 Y123.959 E40.78482
G1 X128.406 Y123.152 E40.8395
G1 X127.695 Y122.155 E40.89652
G1 X127.165 Y121.009 E40.95531
G1 X126.834 Y119.748 E41.01602
G1 X126.721 Y118.422 E41.07798
G1 X126.834 Y117.096 E41.13995
G1 X127.165 Y115.835 E41.20066
G1 X127.695 Y114.689 E41.25945
G1 X128.406 Y113.692 E41.31647
G1 X129.259 Y112.885 E41.37115
G1 X130.19 Y112.31 E41.4221
G1 X131.213 Y111.951 E41.47259
G1 X132.244 Y111.834 E41.5209
G1 X133.275 Y111.951 E41.56922
